svgs/solid/scanner-touchscreen.svg

<svg xmlns="http://www.w3.org/2000/svg" viewBox="0 0 512 512"><!--! Font Awesome Pro 6.6.0 by @fontawesome - https://fontawesome.com License - https://fontawesome.com/license (Commercial License) Copyright 2024 Fonticons, Inc. --><path d="M152 0l16 0c13.3 0 24 10.7 24 24l0 40-64 0 0-40c0-13.3 10.7-24 24-24zM0 160c0-35.3 28.7-64 64-64l224 0c35.3 0 64 28.7 64 64l0 288c0 35.3-28.7 64-64 64L64 512c-35.3 0-64-28.7-64-64L0 160zm64 16l0 256c0 8.8 7.2 16 16 16l192 0c8.8 0 16-7.2 16-16l0-256c0-8.8-7.2-16-16-16L80 160c-8.8 0-16 7.2-16 16zM288 24c0-13.3 10.7-24 24-24l16 0c13.3 0 24 10.7 24 24l0 40-64 0 0-40zM240 0c8.8 0 16 7.2 16 16l0 48-32 0 0-48c0-8.8 7.2-16 16-16zM384 16c0-8.8 7.2-16 16-16s16 7.2 16 16l0 256c0 8.8-7.2 16-16 16s-16-7.2-16-16l0-256zM472 0l16 0c13.3 0 24 10.7 24 24l0 240c0 13.3-10.7 24-24 24l-16 0c-13.3 0-24-10.7-24-24l0-240c0-13.3 10.7-24 24-24z"/></svg>

<svg xmlns="http://www.w3.org/2000/svg" viewBox="0 0 512 512"><!--! Font Awesome Pro 6.4.0 by @fontawesome - https://fontawesome.com License - https://fontawesome.com/license (Commercial License) Copyright 2023 Fonticons, Inc. --><path d="M152 0h16c13.3 0 24 10.7 24 24V64H128V24c0-13.3 10.7-24 24-24zM0 160c0-35.3 28.7-64 64-64H288c35.3 0 64 28.7 64 64V448c0 35.3-28.7 64-64 64H64c-35.3 0-64-28.7-64-64V160zm64 16V432c0 8.8 7.2 16 16 16H272c8.8 0 16-7.2 16-16V176c0-8.8-7.2-16-16-16H80c-8.8 0-16 7.2-16 16zM288 24c0-13.3 10.7-24 24-24h16c13.3 0 24 10.7 24 24V64H288V24zM240 0c8.8 0 16 7.2 16 16V64H224V16c0-8.8 7.2-16 16-16zM384 16c0-8.8 7.2-16 16-16s16 7.2 16 16V272c0 8.8-7.2 16-16 16s-16-7.2-16-16V16zM472 0h16c13.3 0 24 10.7 24 24V264c0 13.3-10.7 24-24 24H472c-13.3 0-24-10.7-24-24V24c0-13.3 10.7-24 24-24z"/></svg>
